images/rules-img-1.svg

<svg width="90" height="90" viewBox="0 0 90 90" fill="none" xmlns="http://www.w3.org/2000/svg">
<g clip-path="url(#clip0_252_155)">
<path d="M44.3311 7.49636C43.5701 7.87909 42.8191 8.30254 42.078 8.76673L54.7062 39.8984L54.7513 39.8929C55.1302 39.851 55.8038 39.7753 56.6507 39.6793C57.3787 39.5994 58.11 39.5212 58.7984 39.4479C59.5399 39.3732 60.2297 39.0341 60.7416 38.4925C61.2535 37.9509 61.5533 37.2431 61.5862 36.4986L61.6923 34.3069L61.8142 31.7929L62.9072 9.18911L62.9519 8.32342C62.9613 7.55015 62.6823 6.80112 62.1694 6.22234C61.6566 5.64356 60.9465 5.27651 60.1777 5.19275C57.8856 4.93618 55.6502 4.85567 53.4883 5.01427C51.3501 5.17144 49.2704 5.56388 47.2615 6.2567C46.2582 6.60416 45.2794 7.0185 44.3315 7.49691L44.3311 7.49636ZM65.2837 10.6198L64.3637 29.6113C69.5156 26.9694 74.5654 27.9606 78.6972 28.7724C81.8714 29.3958 84.3909 29.8904 85.393 28.2039C85.6977 27.6856 85.8841 27.1063 85.9387 26.5075C86.1118 24.798 85.368 22.7645 83.8906 20.722C82.3296 18.5656 79.9737 16.4411 77.0059 14.6775C73.7474 12.7418 69.7596 11.2451 65.2851 10.6215L65.2837 10.6198ZM10.3829 35.3612C9.79383 36.0168 9.24011 36.6918 8.7217 37.3863C8.09315 38.2283 7.52131 39.1111 7.00999 40.0289C5.98037 41.8867 5.23222 43.8671 4.70561 45.946C4.17447 48.048 3.8651 50.2629 3.71922 52.5652C3.66722 53.3562 3.919 54.1372 4.42318 54.7489C4.92736 55.3605 5.64594 55.7567 6.43229 55.8567L7.18497 55.9521L29.6351 58.8008L32.1321 59.1173L34.306 59.3931C35.0449 59.4899 35.7939 59.3174 36.4161 58.9072C37.0383 58.497 37.4919 57.8765 37.6941 57.1593C37.8793 56.518 38.0759 55.8377 38.2733 55.1595C38.5091 54.3516 38.6907 53.7291 38.7921 53.3872C38.8107 53.3238 38.8289 53.2643 38.8423 53.2025L10.3829 35.3612ZM14.7479 21.3723C13.0968 23.7911 11.6695 26.4711 10.4015 29.3377C10.1442 29.909 10.0669 30.5451 10.1797 31.1614C10.2926 31.7778 10.5903 32.3452 11.0333 32.7883L11.098 32.849C11.1673 32.9151 11.2474 32.9831 11.3378 33.0536C11.4282 33.124 11.4956 33.1715 11.5653 33.2151L11.568 33.2183L11.5707 33.2216L11.6006 33.2407L41.5677 52.0244C42.1856 52.4183 42.9234 52.5794 43.6493 52.479C44.3751 52.3786 45.0415 52.0232 45.5293 51.4764C46.0027 50.9565 46.4826 50.4618 46.969 49.9923C47.4428 49.5334 47.9534 49.0742 48.501 48.6148C49.0485 48.1554 49.5904 47.7313 50.1268 47.3426C50.6743 46.9445 51.2459 46.5569 51.8416 46.1797C52.4648 45.7943 52.9305 45.1997 53.1554 44.5024C53.3803 43.805 53.3498 43.0504 53.0692 42.3735L39.7735 9.59532C39.7599 9.56161 39.7449 9.52726 39.7317 9.49608C39.7048 9.4367 39.6724 9.37283 39.6346 9.30148C39.583 9.2049 39.5294 9.11366 39.4719 9.02757L39.4259 8.95848C39.0665 8.44479 38.5593 8.05266 37.9717 7.83421C37.384 7.61576 36.7438 7.58135 36.1361 7.73554C33.0913 8.48784 30.2037 9.42752 27.5328 10.6353C24.9025 11.8247 22.4899 13.2767 20.3543 15.0687C18.2187 16.8607 16.3762 18.9856 14.7476 21.3698L14.7479 21.3723ZM8.16909 28.3474C9.50129 25.3358 10.9965 22.5251 12.7262 19.9916C14.481 17.4223 16.4752 15.1306 18.7815 13.1954C21.0878 11.2603 23.6915 9.69383 26.5286 8.41101C29.324 7.14656 32.3533 6.16074 35.5519 5.37136C36.4577 5.14406 37.4062 5.14941 38.3093 5.38692C39.2125 5.62444 40.0409 6.08642 40.7177 6.72991C41.5392 6.21539 42.3732 5.74197 43.2236 5.31454C44.2695 4.78575 45.3498 4.32783 46.4571 3.94383C48.662 3.18509 50.9484 2.75167 53.306 2.58068C55.6385 2.40949 58.0243 2.49364 60.4524 2.76311C61.791 2.91216 63.0299 3.54248 63.9385 4.53675C64.8471 5.53103 65.3635 6.82153 65.3916 8.16813C70.3005 8.81926 74.6823 10.4519 78.2612 12.5798C81.5262 14.5201 84.1338 16.8787 85.8769 19.2872C87.703 21.811 88.6076 24.4299 88.3752 26.7607C88.2857 27.715 87.9857 28.6377 87.4969 29.4622C85.6137 32.6297 82.3457 31.9866 78.2251 31.1782C74.147 30.3757 69.0715 29.3812 64.224 32.5285L64.0246 36.6214C63.9679 37.9484 63.4351 39.2107 62.5237 40.1769C61.6122 41.1431 60.3832 41.7486 59.0617 41.8826C58.3733 41.9559 57.6425 42.0346 56.9145 42.1145C56.5784 42.1526 56.1475 42.1995 55.5927 42.262C55.8646 43.3896 55.7749 44.5741 55.3361 45.6478C54.8973 46.7215 54.1318 47.6299 53.148 48.2443C52.6181 48.5786 52.0915 48.9354 51.5683 49.315C51.0341 49.7019 50.5331 50.0916 50.0651 50.4843C49.5971 50.877 49.128 51.3013 48.6578 51.7571C48.1949 52.207 47.7532 52.6625 47.333 53.1237C46.5567 53.9863 45.5286 54.5826 44.3944 54.828C43.2602 55.0735 42.0776 54.9557 41.0141 54.4912C40.8401 55.0789 40.7103 55.5219 40.6174 55.8409C40.4199 56.5191 40.2229 57.1989 40.0381 57.8407C39.676 59.1172 38.8666 60.2209 37.7578 60.9499C36.649 61.6788 35.315 61.9845 33.9994 61.8109L29.9382 61.296C25.9927 65.5204 26.0908 70.6895 26.175 74.8516C26.2571 79.0487 26.3214 82.3801 22.875 83.6846C21.978 84.0226 21.0173 84.1577 20.0619 84.0804C17.7298 83.9044 15.3078 82.5588 13.1358 80.3224C11.0676 78.1866 9.19707 75.2105 7.85225 71.658C6.37829 67.763 5.53136 63.1634 5.74255 58.216C4.42099 57.9546 3.23942 57.2219 2.41775 56.1543C1.59609 55.0867 1.19031 53.757 1.27592 52.4125C1.4301 49.9753 1.76099 47.6117 2.33677 45.3425C2.91637 43.0526 3.73947 40.8731 4.86893 38.835C5.43215 37.823 6.06205 36.8497 6.75445 35.9213C7.32789 35.1506 7.94651 34.399 8.61033 33.6666C8.09437 32.8887 7.78344 31.9931 7.7064 31.0629C7.62937 30.1326 7.78874 29.198 8.16972 28.3459L8.16909 28.3474ZM8.18003 58.5383C8.0171 63.0541 8.79801 67.2417 10.1393 70.7889C11.3614 74.0174 13.0444 76.7064 14.897 78.6182C16.6514 80.4283 18.5215 81.512 20.239 81.6398C20.8381 81.6902 21.4411 81.6072 22.0044 81.397C23.8393 80.7029 23.7897 78.1358 23.7264 74.9021C23.6445 70.6911 23.5454 65.5449 27.0437 60.9302L8.18003 58.5383Z" fill="white"/>
</g>
<defs>
<clipPath id="clip0_252_155">
<rect width="90" height="90" fill="white"/>
</clipPath>
</defs>
</svg>

<svg width="90" height="90" fill="none" xmlns="http://www.w3.org/2000/svg"><g clip-path="url(#a)"><path d="M44.331 7.496c-.76.383-1.512.807-2.253 1.27l12.628 31.132.045-.005 1.9-.214c.728-.08 1.459-.158 2.147-.231a3.101 3.101 0 0 0 2.788-2.95l.106-2.191.122-2.514 1.093-22.604.045-.866a3.111 3.111 0 0 0-2.774-3.13c-2.292-.257-4.528-.337-6.69-.179-2.138.157-4.218.55-6.227 1.243a23.758 23.758 0 0 0-2.93 1.24Zm20.953 3.124-.92 18.991c5.152-2.642 10.201-1.65 14.333-.839 3.174.624 5.694 1.118 6.696-.568a4.078 4.078 0 0 0 .546-1.697c.173-1.709-.571-3.742-2.048-5.785-1.561-2.156-3.917-4.28-6.885-6.045-3.259-1.935-7.246-3.432-11.72-4.056l-.002-.001ZM10.383 35.36c-.59.656-1.143 1.33-1.661 2.025-.629.842-1.2 1.725-1.712 2.643-1.03 1.858-1.778 3.838-2.304 5.917-.532 2.102-.84 4.317-.987 6.62a3.112 3.112 0 0 0 2.713 3.29l.753.096 22.45 2.849 2.497.316 2.174.276a3.102 3.102 0 0 0 3.388-2.234c.185-.641.382-1.321.58-2l.518-1.772c.019-.063.037-.123.05-.184L10.382 35.36Zm4.365-13.989c-1.651 2.42-3.079 5.1-4.346 7.966a3.087 3.087 0 0 0 .631 3.45l.065.061a3.196 3.196 0 0 0 .467.366l.003.003.003.004.03.019 29.967 18.783a3.086 3.086 0 0 0 3.961-.548c.474-.52.954-1.014 1.44-1.484.474-.459.984-.918 1.532-1.377.547-.46 1.09-.884 1.626-1.272a32.27 32.27 0 0 1 1.715-1.163 3.086 3.086 0 0 0 1.227-3.806L39.773 9.594l-.041-.099a3.566 3.566 0 0 0-.26-.468l-.046-.07a3.088 3.088 0 0 0-3.29-1.222c-3.045.752-5.932 1.692-8.603 2.9-2.63 1.189-5.043 2.64-7.179 4.433-2.135 1.792-3.978 3.917-5.606 6.3v.003Zm-6.579 6.975c1.332-3.011 2.827-5.822 4.557-8.355 1.755-2.57 3.75-4.861 6.056-6.797 2.306-1.935 4.91-3.501 7.747-4.784 2.795-1.264 5.824-2.25 9.023-3.04a5.54 5.54 0 0 1 5.166 1.359 30.679 30.679 0 0 1 2.506-1.415 26.172 26.172 0 0 1 3.233-1.371c2.205-.759 4.491-1.192 6.849-1.363 2.333-.172 4.718-.087 7.146.182a5.555 5.555 0 0 1 4.94 5.405c4.909.651 9.29 2.284 12.87 4.412 3.264 1.94 5.872 4.299 7.615 6.707 1.826 2.524 2.73 5.143 2.498 7.474a6.485 6.485 0 0 1-.878 2.701c-1.883 3.168-5.151 2.525-9.272 1.716-4.078-.802-9.153-1.797-14.001 1.35l-.2 4.093a5.525 5.525 0 0 1-4.962 5.262c-.689.073-1.42.152-2.148.231-.336.039-.767.086-1.321.148a5.526 5.526 0 0 1-2.445 5.982 29.43 29.43 0 0 0-3.083 2.24 26.48 26.48 0 0 0-1.407 1.273c-.463.45-.905.906-1.325 1.367a5.525 5.525 0 0 1-6.319 1.367 697.71 697.71 0 0 0-.976 3.35A5.526 5.526 0 0 1 34 61.81l-4.06-.515c-3.946 4.224-3.848 9.393-3.764 13.556.082 4.197.146 7.528-3.3 8.833a6.493 6.493 0 0 1-2.813.395c-2.332-.176-4.754-1.521-6.926-3.758-2.068-2.135-3.939-5.112-5.284-8.664-1.474-3.895-2.32-8.495-2.11-13.442a5.556 5.556 0 0 1-4.466-5.803c.154-2.438.485-4.801 1.06-7.07.58-2.29 1.403-4.47 2.533-6.508a26.122 26.122 0 0 1 1.885-2.914 30.218 30.218 0 0 1 1.856-2.254 5.537 5.537 0 0 1-.44-5.321v.001Zm.011 30.191c-.163 4.516.618 8.704 1.96 12.25 1.221 3.23 2.904 5.918 4.757 7.83 1.754 1.81 3.624 2.894 5.342 3.022.6.05 1.202-.033 1.765-.243 1.835-.694 1.786-3.261 1.722-6.495-.081-4.21-.18-9.357 3.318-13.972L8.18 58.538Z" fill="#fff"/></g><defs><clipPath id="a"><path fill="#fff" d="M0 0h90v90H0z"/></clipPath></defs></svg>
